dealnox/img/sprite/icon-teams.svg

<svg width="29" height="18" viewBox="0 0 29 18" fill="none" xmlns="http://www.w3.org/2000/svg">
<path d="M16.8894 17H16.2058C16.1789 16.9828 16.1501 16.969 16.1199 16.959C15.5089 16.8504 14.9309 16.5978 14.4316 16.221C13.7481 15.699 13.0563 15.1835 12.3879 14.64C11.2649 13.729 10.1054 12.8685 9.10595 11.809C8.83108 11.5175 8.52447 11.259 8.24129 10.9905C8.22733 11.0209 8.21525 11.0521 8.20515 11.084C8.03769 11.604 7.9586 11.6625 7.41715 11.6625C6.51392 11.6625 5.61068 11.6525 4.70794 11.668C4.39303 11.6735 4.15623 11.584 4 11.3V1.4L4.39059 1H4.92764C5.02187 1.0165 5.11611 1.04 5.21131 1.05C6.41041 1.156 7.60951 1.2755 8.772 1.611C9.17381 1.727 9.55952 1.915 9.93742 2.102C10.1991 2.231 10.2855 2.482 10.2367 2.778C10.2186 2.889 10.2133 3.0025 10.2011 3.1245C10.267 3.131 10.3065 3.138 10.3475 3.138C11.633 3.138 12.9181 3.1415 14.2046 3.1335C14.3152 3.12425 14.4211 3.08298 14.5097 3.0145C14.9574 2.6915 15.4169 2.3975 15.9525 2.2505C16.844 2.0055 17.6925 2.182 18.5215 2.5305C19.5058 2.944 20.4881 3.3625 21.4714 3.7775C21.5564 3.8135 21.6453 3.8405 21.7439 3.8775C21.7068 3.448 21.8059 3.2775 22.1599 3.1275C22.3181 3.06083 22.4779 3.00017 22.6393 2.9455C24.478 2.314 26.3782 2.1035 28.3057 2.065C28.6236 2.059 28.8569 2.157 29 2.453V12.353C28.8809 12.577 28.7198 12.739 28.4512 12.739C27.4259 12.739 26.4007 12.7435 25.3754 12.739C25.0902 12.739 24.9359 12.597 24.8437 12.3115C24.7988 12.1725 24.7548 12.0335 24.7035 11.8735C24.4467 12.0495 24.2153 12.2015 23.9907 12.3675C23.9655 12.3902 23.9455 12.4183 23.9321 12.4499C23.9188 12.4814 23.9125 12.5156 23.9136 12.55C24.0317 13.51 23.275 14.4095 22.2892 14.496C22.2423 14.5052 22.1976 14.524 22.1579 14.5513C22.1181 14.5785 22.0841 14.6136 22.0578 14.6545C21.6155 15.3735 20.9676 15.6765 20.1586 15.6385C20.0121 15.632 19.9325 15.6465 19.85 15.7855C19.393 16.556 18.4991 16.9325 17.7838 16.6855C17.7391 16.6703 17.6908 16.6703 17.6461 16.6855C17.3908 16.7815 17.1403 16.892 16.8894 17ZM10.0868 4.2105C9.60883 6.014 9.14013 7.779 8.67777 9.5455C8.65385 9.636 8.64896 9.7805 8.70023 9.835C9.3154 10.4885 9.8964 11.188 10.5775 11.7615C12.0651 13.0145 13.5962 14.2145 15.1332 15.4045C15.4398 15.6415 15.8465 15.749 16.2171 15.8895C16.3582 15.943 16.5266 15.921 16.6824 15.933L16.7312 15.839C16.2005 15.313 15.6673 14.789 15.1405 14.26C14.9374 14.0555 14.7411 13.8435 14.5546 13.6235C14.3564 13.3895 14.3745 13.0825 14.58 12.8815C14.7856 12.6805 15.0858 12.6885 15.3051 12.896C15.3768 12.9635 15.4403 13.0405 15.5091 13.111C16.2994 13.9143 17.0904 14.7175 17.882 15.5205C18.0772 15.7165 18.2984 15.7205 18.5337 15.6105C18.7581 15.509 18.9357 15.3227 19.0293 15.0905C18.2755 14.296 17.5387 13.52 16.8039 12.7405C16.7218 12.6596 16.6473 12.5711 16.5813 12.476C16.5184 12.3821 16.4886 12.269 16.4969 12.1555C16.5053 12.0419 16.5512 11.9347 16.6272 11.8515C16.7849 11.6735 16.986 11.611 17.2018 11.7075C17.3156 11.7575 17.4133 11.8575 17.5041 11.951C18.2808 12.745 19.0454 13.551 19.8329 14.335C20.1718 14.672 20.6698 14.635 21.0106 14.2975C21.1541 14.1565 21.1922 14.0475 21.0179 13.8705C20.0873 12.9275 19.1699 11.9705 18.2525 11.013C18.003 10.7525 17.9991 10.437 18.2213 10.216C18.4434 9.995 18.7442 10.0125 18.9986 10.2745C19.2529 10.5365 19.4946 10.803 19.7475 11.0625C20.4603 11.793 21.1697 12.527 21.8957 13.243C21.9549 13.2947 22.0236 13.3337 22.0977 13.358C22.1718 13.3822 22.2498 13.391 22.3273 13.384C22.7618 13.319 22.9874 12.8615 22.7994 12.454C22.7155 12.2644 22.6026 12.0897 22.465 11.9365C22.0305 11.476 21.6008 11.0055 21.1268 10.59C19.7597 9.3945 18.3746 8.2225 16.9909 7.048C16.9358 7.0015 16.8137 6.998 16.7385 7.0235C16.4919 7.105 16.2586 7.232 16.0091 7.298C15.8306 7.34469 15.6714 7.44879 15.555 7.595C14.8403 8.4275 13.9614 8.773 12.8873 8.495C12.0158 8.2705 11.6179 7.619 11.7937 6.7095C11.9318 5.9885 12.2863 5.3765 12.7081 4.799C12.8512 4.603 13.0099 4.419 13.1793 4.207L10.0868 4.2105ZM23.44 11.45C23.7173 11.2595 23.9854 11.086 24.2392 10.8925C24.2944 10.8505 24.3408 10.7215 24.3188 10.659C23.7036 8.90634 23.0813 7.15633 22.4518 5.409C22.4162 5.3287 22.3524 5.265 22.2731 5.2305C20.8595 4.64183 19.4436 4.0575 18.0255 3.4775C17.1955 3.1365 16.3621 3.055 15.5697 3.572C14.6562 4.1685 13.8569 4.9025 13.275 5.848C13.0675 6.1865 12.941 6.582 12.8077 6.963C12.7467 7.137 12.7643 7.354 12.9923 7.413C13.233 7.4735 13.4874 7.5335 13.731 7.517C14.268 7.4805 14.6171 7.114 14.9335 6.706C15.036 6.574 15.162 6.4285 15.308 6.371C15.7674 6.1895 16.2483 6.0655 16.7073 5.8835C17.0173 5.7605 17.2443 5.8195 17.4787 6.0465C17.8629 6.4175 18.2628 6.7725 18.6656 7.122C20.2855 8.521 22.0314 9.7735 23.44 11.45ZM27.942 11.664V3.1415C26.2434 3.1885 24.5942 3.411 23.0001 3.9415C23.3306 4.7945 23.6724 5.6135 23.9668 6.45C24.5498 8.1085 25.1049 9.7775 25.6781 11.44C25.7069 11.524 25.7933 11.6485 25.8548 11.65C26.5452 11.6675 27.236 11.6615 27.942 11.6615V11.664ZM5.05702 2.1045V10.586H7.27117C7.45914 9.948 7.65101 9.321 7.82873 8.6905C8.34918 6.8445 8.85841 4.996 9.15038 3.093C9.18699 2.854 9.08691 2.8055 8.91993 2.7535C7.66908 2.3635 6.37623 2.234 5.05702 2.1045Z" fill="#968E8E"/>
</svg>

<svg width="29" height="18" fill="none" xmlns="http://www.w3.org/2000/svg"><path d="M16.89 17h-.684a.383.383 0 0 0-.086-.041 3.95 3.95 0 0 1-1.688-.738c-.684-.522-1.376-1.037-2.044-1.581-1.123-.911-2.283-1.772-3.282-2.831-.275-.291-.582-.55-.865-.818a.81.81 0 0 0-.036.093c-.167.52-.246.579-.788.579-.903 0-1.806-.01-2.71.005-.314.006-.55-.084-.707-.368V1.4l.39-.4h.538c.094.016.188.04.283.05 1.2.106 2.399.226 3.561.561.402.116.788.304 1.165.491.262.129.349.38.3.676-.018.111-.024.224-.036.346.066.007.105.014.146.014 1.286 0 2.571.004 3.858-.004.11-.01.216-.051.305-.12.447-.322.907-.616 1.443-.763.891-.245 1.74-.069 2.569.28.984.413 1.966.831 2.95 1.246.084.036.173.063.272.1-.037-.429.062-.6.416-.75.158-.066.318-.127.48-.181 1.838-.632 3.738-.843 5.666-.881.318-.006.55.092.694.388v9.9c-.12.224-.28.386-.549.386-1.025 0-2.05.004-3.076 0-.285 0-.44-.142-.531-.428-.045-.139-.09-.277-.14-.438-.257.177-.489.329-.713.495a.233.233 0 0 0-.077.182c.118.96-.639 1.86-1.625 1.946a.351.351 0 0 0-.231.159c-.442.719-1.09 1.022-1.9.984-.146-.007-.226.008-.308.147-.457.77-1.35 1.147-2.066.9a.214.214 0 0 0-.138 0c-.255.096-.506.206-.757.314zM10.086 4.21c-.478 1.804-.947 3.569-1.41 5.336-.023.09-.028.235.023.289.615.653 1.196 1.353 1.878 1.926 1.487 1.254 3.018 2.454 4.555 3.644.307.237.714.344 1.084.485.141.053.31.031.465.043l.05-.094c-.531-.526-1.065-1.05-1.591-1.579-.204-.204-.4-.416-.586-.636a.53.53 0 0 1 .025-.742c.206-.201.506-.194.725.014.072.067.135.144.204.215l2.373 2.41c.195.195.416.2.652.09a.965.965 0 0 0 .495-.52c-.753-.795-1.49-1.571-2.225-2.35a1.86 1.86 0 0 1-.223-.265.51.51 0 0 1 .046-.625c.158-.178.359-.24.575-.144.114.05.211.15.302.244.777.794 1.541 1.6 2.329 2.384.339.337.837.3 1.178-.038.143-.14.181-.25.007-.427-.93-.942-1.848-1.9-2.765-2.857-.25-.26-.254-.576-.032-.797.222-.221.523-.204.778.059.254.261.496.528.748.787.713.731 1.423 1.465 2.149 2.181a.583.583 0 0 0 .431.141c.435-.065.66-.523.472-.93a1.963 1.963 0 0 0-.334-.518c-.434-.46-.864-.93-1.338-1.346-1.367-1.195-2.752-2.367-4.136-3.542-.055-.046-.177-.05-.253-.024-.246.081-.48.208-.729.274a.859.859 0 0 0-.454.297c-.715.833-1.594 1.178-2.668.9-.871-.224-1.27-.876-1.093-1.785.138-.721.492-1.333.914-1.911.143-.196.302-.38.471-.592l-3.092.003zm13.353 7.24c.277-.19.545-.364.8-.557.054-.043.1-.171.079-.234a678.239 678.239 0 0 0-1.867-5.25.348.348 0 0 0-.179-.178 723.294 723.294 0 0 0-4.247-1.753c-.83-.342-1.664-.423-2.456.094-.914.596-1.713 1.33-2.295 2.276-.207.338-.334.734-.467 1.115-.061.174-.044.391.184.45.241.06.495.12.739.104.537-.037.886-.403 1.203-.811.102-.132.228-.278.374-.335.46-.182.94-.306 1.4-.488.31-.122.536-.064.77.163.385.372.785.726 1.188 1.076 1.62 1.399 3.365 2.652 4.774 4.328zm4.502.214V3.142c-1.699.046-3.348.269-4.942.8.33.853.672 1.671.967 2.508.583 1.658 1.138 3.327 1.711 4.99.029.084.115.209.177.21.69.018 1.381.011 2.087.011v.003zM5.057 2.104v8.482h2.214c.188-.638.38-1.265.558-1.896.52-1.845 1.03-3.694 1.321-5.597.037-.239-.063-.288-.23-.34-1.25-.39-2.544-.519-3.863-.649z" fill="#968E8E"/></svg>
